X:1
T:Tout ce qu'on peut
T:Noé Faignient
T:Source : La fleur des chansons à 3---Louvain---P.Phalèse---1574. Editor : André Vierendeels (29/08/18) Notes : Original clefs : G2, C2, C3 Original note values have been halved Editorial accidentals above the staff
T:Tout ce qu'on peut
T:©
T:©
T:©
T:©
T:©
C:Noé Faignient
Z:©
%%score [ 1 2 3 ]
L:1/8
Q:1/4=96
M:2/2
K:F
V:1 treble nm="Soprano" snm="S"
V:2 treble nm="Alto" snm="A"
V:3 treble-8 nm="Tenor" snm="T"
V:1
 A4 A2 =B2 | c2 d2 c3 B | A2 A2 c2 d2 | c2 =B2 c2 A2 | G4 z2 d2 | d2 g2 f2 d2 | c3 B A2 A2 | %7
w: Tout ce qu'on|peut en el- le|voir, n'est que dou-|ceur et a- my-|tié, beau-|té, bon- té et|bon vou- loir tout|
 c2 d2 c2 =B2 | c2 A2 G2 z G | G3 d c2 B2 | G2 A2 B2 d2 | d3 f e2 d2 | d2 ^c2 d2 AB- | %13
w: plain d'a- mou- reu-|se pi- tié, mais|ie ne suis e-|di- fié, mais ie|ne _ _ suis|e- di- fié de rien|
 BA/G/ A2 B4 | f2 fd g2 _e2 | d2 d2 d2 c2 | dfff d2 g2- | gf/e/ ^f2 g4 | d4 c2 c2 | c2 B2 B2 A2 | %20
w: _ _ _ _ mieux,|car le re- gard d'el-|le, car le re-|gard, car le re- gard d'el-|* * * * le|me met en|u- ne pai- ne|
 d4 ^c2 z f | ff e4 d2 | d2 ^c2 dddd | f2 c2 d3 e | fe/d/ e2 d4 | z AAA B2 G2 | A2 c2 B2 Ad | %27
w: tel- le, que|ne la puis di-|re'à moy- tié, quand ne la|voy, ie me la-|men- * * * te,|si ie la voy ie|me tour- men- te, ie|
 dd f4 _e2 | d2 c4 B2 | d4 z2 B2 | A2 A c2 d c2 | B2 A4 z d | f>edc B2 A2 | G2 B2 A2 Ac- | %34
w: me tour- men- *||te, le|doux n'est ia- mais sans|l'a- mer, voi-|là que c'est de trop ay-|mer, le doux n'est ia-|
 cd c2 B2 A2- | A2 z d f>edc | B2 A2 !fermata!=B4 |] %37
w: * mais sans l'a- mer,|_ voi- là que c'est de|trop ay- mer.|
V:2
 ^F4 F2 G2 | A3 B A3 G | ^F2 F2 G2 B2 |"^#" A2 G2 G2 F2 | G4 B4 | B2 B2 A3 B | A3 G ^F2 F2 | %7
w: Tout ce qu'on|peut en el- le|voir, n'est que dou-|ceur et a- my-|tié, beau-|té, bon- té et|bon vou- loir tout|
 G2 B2 A2 G2 | G2 ^F2 G2 B2 | B3 B A2 G2 | G2 ^F2 G2 z G | G3 F G2 D2 | G2 E2 D F2 E | F4 D2 FG | %14
w: plain d'a- mo- reu-|se pi- tié, mais|ie ne suis e-|di- fi- é, mais|ie ne suis e-|di- fi- é de rien|mieux, car le re-|
 A2 A2 G4 | F2 FD G2 _E2 | DAAA B2 G2 | A4 z2 B2- | B2 A4 G2 | G2 G2 F2 A2- | A2 G2 A4 | %21
w: gard d'el- le,|car le re- gard d'el-|le, car le re- gard d'el-|le me|_ met en|u- ne pai- ne|_ tel- le,|
 z AAA G3 D | F2 E2 ^F2 z2 | A2 AA B2 G2 | A3 G F2 G2 | F2 E2 z DDD | F2 C2 DE F2 | F2 z A AA c2 | %28
w: que ne la puis di-|re'à moy- tié,|quand ne la voy, ie|me _ _ la-|men- te, si ne la|voy, ie me tour- men-|te, si ie la voy,|
 B2 A4 G2- | G2 ^F2 G2 z G | ^F2 F G2 B A2 | G2 FD F>E D2 | z FBA GG^FF | G2 z G ^F2 FG- | %34
w: ie me tour-|* men- te, le|doux n'est ia- mais sans|l'a- mer, voi- là que c'est,|voi- là que c'est de trop ay-|mer, le doux n'est ia-|
 GB A2 G2 FD | F>E D2 z GBA | GG^FF !fermata!G4 |] %37
w: * mais sans l'a- mer, voi-|là que c'est, voi- là que|c'est de trop ay- mer.|
V:3
 d4 d2 g2 | f2 d2 f3 g | d2 d2 c2 B2 | f2 g2 c2 d2 | G4 g4 | g2 g2 d2 d2 | f3 g d2 d2 | %7
w: Tout ce qu'on|peut en el- le|voir, n'est que dou-|ceur et a- my|tié, beau-|té, bon- té et|bon vou- loir tout|
 c2 B2 F2 G2 | c2 d2 G4- | G4 z4 | z4 z2 G2 | G3 d c2 B2 | G2 A2 B2 FG |"^b" F4 B2 BG | d4 _ed c2 | %15
w: plain d'a- mou- reu-|se pi- tié,|_|mais|ie ne suis e-|di- fi- é de rien|mieux, car le re-|gard d'el- * *|
 d4 z4 | f2 fd g2 _e2 | d4 z2 g2- | g2 f4 c2 | _e2 e2 d3 c | B4 A2 d2 | dd c4 B2 | A2 A2 d4 | z8 | %24
w: le,|car le re- gard d'el-|le me|_ met en|u- ne pai- ne|tel- le, sue|ne la puis di-|re'à moy- tié,||
 z AAA B2 G2 | A2 c2 B4 | A4 z4 | d2 dd f2 c2 | d2 f2 _e4 | d4 z2 G2 | d2 d c2 B F2 | %31
w: quand ne la voy, ie|me la- men-|te,|si ie la voy, ie|me tour- men-|te, le|doux n'est ia- mais sans|
 G2 d2 z df>e | dcBF GGAA | G2 z G d2 dc- | cB F2 G2 d2 | z df>e dcBF | GGdd !fermata!G4 |] %37
w: l'a- mer, voi- là que|c'est de trop ay- mer, de trop ay-|mer, le doux n'est ia-|* mais sans l'a- mer,|voi- là que c'est de trop ay-|mer, de trop ay- mer.|

